docs/assets/Logo.svg

<svg width="147" height="32" viewBox="0 0 147 32" fill="none" xmlns="http://www.w3.org/2000/svg">
<g filter="url(#filter0_d_6001_232)">
<path d="M49.5305 1.01262V18.7378H45.6773V1.01262H49.5305Z" fill="#DFDFDF"/>
<path d="M51.6271 18.7378V5.44392H55.2399V7.7894H55.4001C55.6849 7.01046 56.1595 6.39596 56.8239 5.94591C57.4883 5.49585 58.2833 5.27083 59.2087 5.27083C60.1461 5.27083 60.944 5.49874 61.6025 5.95456C62.261 6.40462 62.7 7.01623 62.9195 7.7894H63.0619C63.3407 7.02777 63.845 6.41904 64.5746 5.96322C65.3103 5.50162 66.1794 5.27083 67.182 5.27083C68.4574 5.27083 69.4926 5.66607 70.2876 6.45655C71.0885 7.24126 71.4889 8.35485 71.4889 9.79733V18.7378H67.707V10.5243C67.707 9.78579 67.5053 9.23188 67.1019 8.8626C66.6985 8.49333 66.1942 8.30869 65.5891 8.30869C64.9009 8.30869 64.364 8.52218 63.9784 8.94915C63.5928 9.37036 63.4 9.92715 63.4 10.6195V18.7378H59.7249V10.4464C59.7249 9.79445 59.5321 9.27515 59.1465 8.88857C58.7668 8.50198 58.2655 8.30869 57.6426 8.30869C57.2214 8.30869 56.8417 8.41255 56.5036 8.62027C56.1713 8.82221 55.9073 9.10783 55.7116 9.4771C55.5158 9.84061 55.4179 10.2676 55.4179 10.758V18.7378H51.6271Z" fill="#DFDFDF"/>
<path d="M77.3786 18.9888C76.5065 18.9888 75.7294 18.8417 75.0471 18.5474C74.3649 18.2474 73.8251 17.806 73.4276 17.2232C73.036 16.6347 72.8403 15.9019 72.8403 15.0249C72.8403 14.2863 72.9797 13.6661 73.2585 13.1641C73.5373 12.6621 73.917 12.2582 74.3975 11.9524C74.8781 11.6466 75.4238 11.4158 76.0349 11.26C76.6519 11.1042 77.2985 10.9946 77.9748 10.9311C78.7697 10.8503 79.4104 10.7753 79.8969 10.7061C80.3834 10.6311 80.7363 10.5215 80.9558 10.3772C81.1753 10.233 81.2851 10.0195 81.2851 9.73675V9.68482C81.2851 9.13667 81.1071 8.71259 80.7512 8.41255C80.4012 8.11251 79.9028 7.9625 79.2562 7.9625C78.574 7.9625 78.0311 8.10963 77.6277 8.4039C77.2243 8.69239 76.9574 9.0559 76.8269 9.49441L73.3208 9.21745C73.4988 8.40967 73.8488 7.7115 74.3708 7.12297C74.8929 6.52867 75.5662 6.07284 76.3908 5.7555C77.2214 5.43238 78.1824 5.27083 79.274 5.27083C80.0333 5.27083 80.7601 5.35738 81.4542 5.53047C82.1542 5.70357 82.7741 5.97187 83.314 6.33538C83.8598 6.69888 84.2899 7.16625 84.6043 7.73747C84.9187 8.30292 85.0759 8.98089 85.0759 9.77137V18.7378H81.4809V16.8943H81.3741C81.1546 17.3098 80.8609 17.6762 80.4931 17.9935C80.1253 18.3051 79.6833 18.5503 79.1672 18.7292C78.6511 18.9023 78.0549 18.9888 77.3786 18.9888ZM78.4642 16.4443C79.0219 16.4443 79.5143 16.3375 79.9414 16.1241C80.3685 15.9048 80.7037 15.6105 80.9469 15.2413C81.1902 14.872 81.3118 14.4537 81.3118 13.9863V12.5756C81.1931 12.6506 81.03 12.7198 80.8224 12.7833C80.6207 12.841 80.3923 12.8958 80.1372 12.9477C79.8821 12.9939 79.627 13.0371 79.3719 13.0775C79.1168 13.1122 78.8854 13.1439 78.6778 13.1727C78.2328 13.2362 77.8443 13.3372 77.5121 13.4757C77.1798 13.6141 76.9218 13.8017 76.7379 14.0382C76.554 14.269 76.462 14.5575 76.462 14.9037C76.462 15.4057 76.6489 15.7894 77.0226 16.0548C77.4023 16.3145 77.8828 16.4443 78.4642 16.4443Z" fill="#DFDFDF"/>
<path d="M93.1725 24C91.9444 24 90.8914 23.8356 90.0134 23.5067C89.1414 23.1836 88.4473 22.7422 87.9312 22.1825C87.415 21.6228 87.0798 20.9939 86.9256 20.2957L90.4317 19.837C90.5385 20.1024 90.7075 20.3505 90.9389 20.5813C91.1703 20.8121 91.4758 20.9968 91.8555 21.1352C92.2411 21.2795 92.7097 21.3516 93.2614 21.3516C94.0861 21.3516 94.7653 21.1554 95.2992 20.7631C95.8391 20.3765 96.109 19.7274 96.109 18.8157V16.3837H95.9488C95.7827 16.753 95.5336 17.1021 95.2014 17.4309C94.8691 17.7598 94.442 18.0281 93.9199 18.2358C93.3979 18.4436 92.775 18.5474 92.0512 18.5474C91.0249 18.5474 90.0906 18.3166 89.2481 17.855C88.4117 17.3877 87.7443 16.6751 87.2459 15.7173C86.7536 14.7537 86.5074 13.5362 86.5074 12.0649C86.5074 10.559 86.7595 9.30112 87.2637 8.29138C87.768 7.28164 88.4384 6.52578 89.2748 6.0238C90.1173 5.52182 91.0397 5.27083 92.0423 5.27083C92.8076 5.27083 93.4483 5.39776 93.9644 5.65164C94.4806 5.89975 94.8958 6.21132 95.2103 6.58637C95.5306 6.95564 95.7768 7.31915 95.9488 7.67688H96.0912V5.44392H99.8554V18.8677C99.8554 19.9986 99.5706 20.9448 99.0011 21.7065C98.4316 22.4681 97.6426 23.0393 96.634 23.4201C95.6315 23.8067 94.4776 24 93.1725 24ZM93.2526 15.7779C93.8636 15.7779 94.3797 15.6307 94.8009 15.3365C95.2281 15.0364 95.5543 14.6094 95.7798 14.0555C96.0111 13.4959 96.1268 12.8265 96.1268 12.0476C96.1268 11.2687 96.0141 10.5936 95.7887 10.0224C95.5632 9.44537 95.237 8.9982 94.8098 8.68085C94.3827 8.36351 93.8636 8.20483 93.2526 8.20483C92.6296 8.20483 92.1046 8.36928 91.6775 8.69816C91.2504 9.02128 90.927 9.47133 90.7075 10.0483C90.488 10.6253 90.3783 11.2917 90.3783 12.0476C90.3783 12.815 90.488 13.4785 90.7075 14.0382C90.933 14.5921 91.2563 15.022 91.6775 15.3278C92.1046 15.6278 92.6296 15.7779 93.2526 15.7779Z" fill="#DFDFDF"/>
<path d="M101.87 18.7378V5.44392H105.66V18.7378H101.87ZM103.774 3.73026C103.21 3.73026 102.727 3.5485 102.323 3.185C101.926 2.81572 101.727 2.37432 101.727 1.8608C101.727 1.35305 101.926 0.917418 102.323 0.553914C102.727 0.184638 103.21 0 103.774 0C104.338 0 104.818 0.184638 105.216 0.553914C105.619 0.917418 105.821 1.35305 105.821 1.8608C105.821 2.37432 105.619 2.81572 105.216 3.185C104.818 3.5485 104.338 3.73026 103.774 3.73026Z" fill="#DFDFDF"/>
<path d="M111.486 11.0523V18.7378H107.695V5.44392H111.308V7.7894H111.468C111.77 7.01623 112.278 6.40462 112.99 5.95456C113.701 5.49874 114.565 5.27083 115.579 5.27083C116.528 5.27083 117.356 5.47277 118.062 5.87667C118.768 6.28056 119.316 6.85756 119.708 7.60765C120.1 8.35197 120.295 9.24053 120.295 10.2733V18.7378H116.504V10.9311C116.51 10.1176 116.297 9.48287 115.864 9.02705C115.431 8.56545 114.835 8.33466 114.075 8.33466C113.565 8.33466 113.114 8.4414 112.723 8.65489C112.337 8.86837 112.034 9.17995 111.815 9.58961C111.601 9.99351 111.492 10.4811 111.486 11.0523Z" fill="#DFDFDF"/>
<path d="M122.583 18.7378H120.27L129.987 1.01262H132.265L135.931 18.7378H133.618L130.734 3.81681H130.592L122.583 18.7378ZM124.612 11.8139H133.938L133.618 13.718H124.292L124.612 11.8139Z" fill="#DFDFDF"/>
<path d="M143 1.01262L139.974 18.7378H137.768L140.793 1.01262H143Z" fill="#DFDFDF"/>
<path fill-rule="evenodd" clip-rule="evenodd" d="M4.05046 7.77988C4.72549 5.32869 11.9825 5.06756 20.5441 7.10298C29.1012 5.07023 36.3523 5.33159 37.027 7.78178C37.3625 9.00108 36.0079 10.5415 33.5218 12.0793C36.0062 13.6167 37.3596 15.157 37.0241 16.3758C36.349 18.8256 29.0992 19.0859 20.5432 17.0537C11.9838 19.0881 4.72942 18.8289 4.05339 16.3787C3.71764 15.1595 5.07085 13.6173 7.55671 12.0793C5.06947 10.5411 3.71517 8.99943 4.05046 7.77988ZM8.75385 13.077C7.44547 13.8477 6.52683 14.5702 5.9925 15.1782C5.54057 15.6925 5.50955 15.9461 5.50797 15.9988C5.53698 16.0444 5.69539 16.2498 6.34978 16.4748C7.125 16.7413 8.29183 16.92 9.8208 16.9509C11.9174 16.9932 14.5296 16.7547 17.4118 16.2216C14.1639 15.264 11.2807 14.1114 9.02793 12.919C8.93532 12.9718 8.84353 13.0242 8.75385 13.077ZM32.0515 12.919C29.8003 14.1108 26.9194 15.2631 23.6735 16.2206C26.5527 16.7527 29.162 16.9903 31.2567 16.948C32.7859 16.9171 33.9535 16.7386 34.7287 16.472C35.3808 16.2476 35.539 16.0431 35.5686 15.9969C35.567 15.9442 35.5368 15.6895 35.085 15.1753C34.5506 14.5674 33.6317 13.8456 32.3237 13.0751C32.2346 13.0227 32.1434 12.9714 32.0515 12.919ZM20.5432 8.60815C20.246 8.68069 19.9469 8.75642 19.6465 8.83474C16.1614 9.74335 13.0546 10.8904 10.6225 12.0793C13.0542 13.2674 16.16 14.4137 19.6436 15.3219C19.9448 15.4004 20.2453 15.4748 20.5432 15.5476C20.8382 15.4755 21.1356 15.4025 21.4339 15.3248C24.9191 14.4161 28.0257 13.2679 30.458 12.0793C28.0254 10.8899 24.9175 9.74182 21.431 8.83283C21.1334 8.75526 20.8375 8.68006 20.5432 8.60815ZM31.2606 7.20961C29.165 7.16728 26.5534 7.40276 23.6726 7.93506C26.9192 8.89291 29.8002 10.0472 32.0515 11.2396C32.1443 11.1866 32.2367 11.1354 32.3266 11.0825C33.6347 10.312 34.5536 9.59019 35.0879 8.9823C35.5386 8.46947 35.5697 8.21446 35.5715 8.16069C35.5423 8.115 35.3849 7.91041 34.7316 7.68563C33.9566 7.41908 32.7895 7.24054 31.2606 7.20961ZM9.81786 7.2077C8.28859 7.23859 7.12206 7.41714 6.34685 7.68372C5.69056 7.90942 5.53338 8.11404 5.50503 8.15879C5.50676 8.21234 5.53849 8.46715 5.98957 8.9804C6.52396 9.58828 7.44284 10.3101 8.75091 11.0806C8.84108 11.1337 8.93382 11.1855 9.02695 11.2386C11.2796 10.0458 14.1634 8.89303 17.4118 7.93506C14.5285 7.40192 11.9151 7.16537 9.81786 7.2077Z" fill="#F550A2"/>
</g>
<defs>
<filter id="filter0_d_6001_232" x="0" y="0" width="147" height="32" filterUnits="userSpaceOnUse" color-interpolation-filters="sRGB">
<feFlood flood-opacity="0" result="BackgroundImageFix"/>
<feColorMatrix in="SourceAlpha" type="matrix" values="0 0 0 0 0 0 0 0 0 0 0 0 0 0 0 0 0 0 127 0" result="hardAlpha"/>
<feOffset dy="4"/>
<feGaussianBlur stdDeviation="2"/>
<feComposite in2="hardAlpha" operator="out"/>
<feColorMatrix type="matrix" values="0 0 0 0 0 0 0 0 0 0 0 0 0 0 0 0 0 0 0.25 0"/>
<feBlend mode="normal" in2="BackgroundImageFix" result="effect1_dropShadow_6001_232"/>
<feBlend mode="normal" in="SourceGraphic" in2="effect1_dropShadow_6001_232" result="shape"/>
</filter>
</defs>
</svg>

<svg xmlns="http://www.w3.org/2000/svg" width="147" height="32" fill="none" viewBox="0 0 147 32"><g filter="url(#a)"><path fill="#dfdfdf" d="M49.53 1.013v17.725h-3.853V1.013zm2.097 17.725V5.444h3.613v2.345h.16a3.7 3.7 0 0 1 1.424-1.843q.997-.675 2.385-.675 1.406 0 2.393.684a3.22 3.22 0 0 1 1.318 1.834h.142q.418-1.142 1.513-1.826 1.102-.692 2.607-.692 1.912 0 3.106 1.186 1.2 1.176 1.2 3.34v8.94h-3.781v-8.213q0-1.107-.605-1.661-.606-.554-1.513-.554-1.032 0-1.61.64-.579.632-.579 1.67v8.119h-3.675v-8.292q0-.977-.578-1.557-.57-.58-1.504-.58a2.13 2.13 0 0 0-1.931 1.168q-.294.545-.294 1.281v7.98zm25.752.251q-1.31 0-2.332-.442a3.73 3.73 0 0 1-1.62-1.324q-.587-.882-.587-2.198 0-1.109.418-1.86a3.3 3.3 0 0 1 1.14-1.213 5.6 5.6 0 0 1 1.637-.692 13 13 0 0 1 1.94-.329q1.192-.12 1.922-.225.73-.112 1.059-.329.33-.216.33-.64v-.052q0-.822-.535-1.272-.525-.45-1.495-.45-1.023 0-1.628.44-.605.434-.801 1.091l-3.506-.277a4.6 4.6 0 0 1 1.05-2.094q.783-.891 2.02-1.368 1.245-.484 2.883-.484 1.14 0 2.18.26 1.05.259 1.86.804.819.546 1.29 1.402.472.849.472 2.034v8.967H81.48v-1.844h-.107q-.33.624-.88 1.1-.553.466-1.327.735-.774.26-1.788.26m1.085-2.545q.837 0 1.477-.32.641-.329 1.006-.883a2.23 2.23 0 0 0 .365-1.255v-1.41a2 2 0 0 1-.49.207q-.302.087-.685.165-.383.07-.765.13l-.694.095a4.8 4.8 0 0 0-1.166.303 1.86 1.86 0 0 0-.774.562q-.276.347-.276.866 0 .753.56 1.15.57.39 1.442.39M93.173 24q-1.843 0-3.16-.493-1.308-.485-2.082-1.325a4.03 4.03 0 0 1-1.005-1.886l3.506-.459q.159.398.507.744.347.347.917.554.578.216 1.405.217 1.237 0 2.038-.589.81-.58.81-1.947v-2.432h-.16q-.249.553-.748 1.047-.498.493-1.281.805-.783.311-1.869.311-1.539 0-2.803-.692-1.255-.7-2.002-2.138-.738-1.444-.739-3.652 0-2.259.757-3.774.756-1.514 2.01-2.267a5.3 5.3 0 0 1 2.768-.753q1.148 0 1.922.38.775.373 1.246.935.48.555.739 1.09h.142V5.445h3.764v13.424q0 1.695-.854 2.839-.854 1.142-2.367 1.713-1.503.58-3.462.58m.08-8.222q.916 0 1.548-.442.64-.45.979-1.28.347-.84.347-2.008t-.338-2.026q-.338-.865-.98-1.341-.64-.476-1.556-.476-.934 0-1.576.493-.64.484-.97 1.35t-.329 2q0 1.15.33 1.99.337.831.97 1.29.64.45 1.575.45m8.618 2.959V5.444h3.79v13.294zm1.904-15.008a2.1 2.1 0 0 1-1.451-.545q-.596-.554-.596-1.324 0-.762.596-1.307.606-.554 1.451-.554t1.442.554q.605.545.605 1.307 0 .77-.605 1.324a2.06 2.06 0 0 1-1.442.545m7.712 7.322v7.686h-3.791V5.444h3.613v2.345h.16a3.73 3.73 0 0 1 1.522-1.834q1.067-.684 2.589-.684 1.424 0 2.483.606 1.058.605 1.646 1.73.587 1.118.587 2.666v8.465h-3.791V10.93q.01-1.22-.64-1.904-.65-.692-1.789-.692-.765 0-1.352.32a2.26 2.26 0 0 0-.908.935q-.32.606-.329 1.462"/><path fill="#dfdfdf" d="M122.583 18.738h-2.313l9.717-17.725h2.278l3.666 17.725h-2.313l-2.884-14.921h-.142zm2.029-6.924h9.326l-.32 1.904h-9.326zM143 1.013l-3.026 17.725h-2.206l3.025-17.725z"/><path fill="#f550a2" fill-rule="evenodd" d="M4.05 7.78c.675-2.451 7.933-2.712 16.494-.677 8.557-2.033 15.808-1.771 16.483.679.335 1.22-1.02 2.76-3.505 4.297 2.484 1.538 3.838 3.078 3.502 4.297-.675 2.45-7.925 2.71-16.48.678-8.56 2.034-15.815 1.775-16.49-.675-.336-1.22 1.017-2.762 3.503-4.3C5.069 10.541 3.715 9 4.05 7.78m4.704 5.297c-1.309.77-2.227 1.493-2.761 2.101-.452.515-.483.768-.485.82.029.046.187.252.842.477.775.266 1.942.445 3.47.476 2.097.042 4.71-.196 7.592-.73-3.248-.957-6.131-2.11-8.384-3.302zm23.298-.158c-2.252 1.192-5.133 2.344-8.378 3.302 2.879.532 5.488.77 7.583.727 1.529-.03 2.696-.21 3.472-.476.652-.224.81-.429.84-.475-.002-.053-.032-.307-.484-.822-.534-.608-1.453-1.33-2.761-2.1zm-11.509-4.31q-.446.108-.896.226c-3.486.908-6.592 2.055-9.024 3.244 2.431 1.188 5.537 2.335 9.02 3.243q.453.117.9.226.444-.108.89-.223c3.486-.909 6.593-2.057 9.025-3.246-2.433-1.19-5.54-2.337-9.027-3.246a60 60 0 0 0-.888-.225m10.718-1.4c-2.096-.042-4.708.194-7.588.726 3.246.958 6.127 2.112 8.378 3.305l.276-.158c1.308-.77 2.227-1.492 2.76-2.1.452-.513.483-.768.484-.821-.029-.046-.186-.25-.84-.475-.774-.267-1.942-.445-3.47-.476m-21.443 0c-1.53.03-2.696.21-3.471.476-.656.225-.814.43-.842.475.002.053.033.308.485.821.534.608 1.453 1.33 2.76 2.1q.137.08.277.159c2.253-1.193 5.136-2.346 8.385-3.304-2.883-.533-5.497-.77-7.594-.727" clip-rule="evenodd"/></g><defs><filter id="a" width="147" height="32" x="0" y="0" color-interpolation-filters="sRGB" filterUnits="userSpaceOnUse"><feFlood flood-opacity="0" result="BackgroundImageFix"/><feColorMatrix in="SourceAlpha" result="hardAlpha" values="0 0 0 0 0 0 0 0 0 0 0 0 0 0 0 0 0 0 127 0"/><feOffset dy="4"/><feGaussianBlur stdDeviation="2"/><feComposite in2="hardAlpha" operator="out"/><feColorMatrix values="0 0 0 0 0 0 0 0 0 0 0 0 0 0 0 0 0 0 0.25 0"/><feBlend in2="BackgroundImageFix" result="effect1_dropShadow_6001_232"/><feBlend in="SourceGraphic" in2="effect1_dropShadow_6001_232" result="shape"/></filter></defs></svg>
